icon-themes/sifr_svg/cmd/sc_greatestwidth.svg

<svg viewBox="0 0 16 16" xmlns="http://www.w3.org/2000/svg"><path d="m16 0h-16v8h16zm-1 11.5625-.28125-.28125-2-2c-.18817-.18125-.45344-.28125-.71875-.28125h-1v1c0 .2653.0931.529799.28125.699219l.28125.300781h-.5625-1v2h1 .5625l-.28125.28125c-.18125.18818-.28125.45344-.28125.71875v1h1c.26529 0 .529789-.1.699219-.28125l2-2 .300781-.28125zm-1-9.5625v4h-12v-4zm-8 9h-1-.5625l.261719-.300781c.200781-.16942.300781-.433919.300781-.699219v-1h-1c-.26531 0-.529799.1-.699219.28125l-2 2-.300781.28125v.875l.28125.28125 2 2c.18818.18125.45346.28125.71875.28125h1v-1c0-.26531-.1-.529789-.28125-.699219l-.28125-.300781h.5625 1z" fill="#555753"/></svg>

<svg xmlns="http://www.w3.org/2000/svg" viewBox="0 0 16 16">
 <path
   style="fill:#555753"
   d="M 16,0 H 0 v 8 h 16 z m -1,11.5625 -0.28125,-0.28125 -2,-2 C 12.53058,9.1 12.26531,9 12,9 h -1 v 1 c 0,0.2653 0.0931,0.529799 0.28125,0.699219 L 11.5625,11 H 11 10 v 2 h 1 0.5625 l -0.28125,0.28125 C 11.1,13.46943 11,13.73469 11,14 v 1 h 1 c 0.26529,0 0.529789,-0.1 0.699219,-0.28125 l 2,-2 L 15,12.4375 Z M 14,2 V 6 H 2 V 2 Z M 6,11 H 5 4.4375 L 4.699219,10.699219 C 4.9,10.529799 5,10.2653 5,10 V 9 H 4 C 3.73469,9 3.470201,9.1 3.300781,9.28125 l -2,2 L 1,11.5625 v 0.875 l 0.28125,0.28125 2,2 C 3.46943,14.9 3.73471,15 4,15 H 5 V 14 C 5,13.73469 4.9,13.470211 4.71875,13.300781 L 4.4375,13 H 5 6 Z"
   />
</svg>
